X: 30069
T: Oh Dear Mother My Toes Are Sore
R: barndance
M: 4/4
K: Gmajor
|:B,C|DBGE D^CD^D|EcAc E2 AG|FcEc D2 EF|GAGE D2 B,C|
DBGE D^CD^D|EcAc E2 AG|FcEc D2 EF|G2 D2 G2:|
|:d^c|edBG DGFG|AGFG E2 AG|FcEc D2 EF|GAGE D2 d^c|
edBG DGFG|AGFG E2 AG|FcEc D2 EF|G2 D2 G2:|

